X:1
T:Trauer und Trost, Op.3
T:Trauer
T:1. Trauer
T:Peter Cornelius
T:Trauer und Trost, Op.3
T:Peter Cornelius
T:Creative Commons copyright waiver (CC0 1.0 Universal) 
T:Creative Commons copyright waiver (CC0 1.0 Universal) 
C:Peter Cornelius
Z:Peter Cornelius
Z:Creative Commons copyright waiver (CC0 1.0 Universal)
Z:
L:1/8
M:2/4
K:G
V:1 treble nm="Voice" snm="Vo."
V:1
 z4 | z4 | z4 | z4 | z4 | z4 | z4 | z4 | z2 B2 | B3 A | G3 c | c2 z2 | z2 c2 | c3 A | ^G3 z | z4 | %16
w: ||||||||Ich|wand- le|ein *|sam,|mein|Weg ist|lang;||
 z B ^AF | B2 ^AA | B3 G | =F3 z | z2 B2 | B3 A | G3 c | c2 z2 | z2 c2 | c3 A | ^G4 | z4 | B2 ^AF | %29
w: zum Him- mel|schau' ich hin-|auf so|bang.|Kein|Stern von|O- *|ben|blickt|nie- der-|wärts,||glanz- los der|
 B2 ^A z | B2 =G=G | =F3 z | z2 z B | c2 cc | c2 A2 | z A Bc | d4- | d3 _B | _e4 | _c2 _A2 | %40
w: Him- mel,|dun- kel mein|Herz.|Mein|Herz und der|Him- mel|hat glei- che|Not,|* sein|Glanz|ist er-|
 =e3 ^c | =A2 z2 | z2 c2 | A4- | A2 B2 | G4- | G4- | G4- | G2 z2 | z4 | z4 | z4 |] %52
w: lo- *|schen,|mein|Lieb|* ist|tot.|||||||

